src/lib/packages/icons/src/assets/line/caret-up-circle.svg

<svg width="24" height="24" viewBox="0 0 24 24" fill="none" xmlns="http://www.w3.org/2000/svg">
<path d="M12 1.25C6.072 1.25 1.25 6.072 1.25 12C1.25 17.928 6.072 22.75 12 22.75C17.928 22.75 22.75 17.928 22.75 12C22.75 6.072 17.928 1.25 12 1.25ZM12 21.25C6.899 21.25 2.75 17.101 2.75 12C2.75 6.899 6.899 2.75 12 2.75C17.101 2.75 21.25 6.899 21.25 12C21.25 17.101 17.101 21.25 12 21.25ZM13.4409 8.75195C12.7219 7.90195 11.2771 7.90195 10.5581 8.75195L7.63794 12.2141C7.22194 12.7081 7.13205 13.3779 7.40405 13.9629C7.67705 14.5509 8.25088 14.917 8.90088 14.917H15.0979C15.7479 14.917 16.322 14.5519 16.595 13.9629C16.866 13.3779 16.7771 12.7081 16.3611 12.2151L13.4409 8.75195ZM15.2351 13.3311C15.2091 13.3881 15.1629 13.416 15.0979 13.416H8.90088C8.83688 13.416 8.79092 13.3871 8.76392 13.3311C8.72692 13.2501 8.76991 13.1989 8.78491 13.1819L11.7051 9.71997C11.8061 9.60197 11.933 9.58398 12 9.58398C12.067 9.58398 12.1949 9.60197 12.2949 9.71997L15.2151 13.1831C15.2291 13.1991 15.2721 13.2501 15.2351 13.3311Z" fill="currentColor"/>
</svg>

<svg xmlns="http://www.w3.org/2000/svg" width="24" height="24" fill="none"><path fill="currentColor" d="M12 1.25C6.072 1.25 1.25 6.072 1.25 12S6.072 22.75 12 22.75 22.75 17.928 22.75 12 17.928 1.25 12 1.25Zm0 20c-5.101 0-9.25-4.149-9.25-9.25S6.899 2.75 12 2.75s9.25 4.149 9.25 9.25-4.149 9.25-9.25 9.25Zm1.44-12.498c-.718-.85-2.163-.85-2.882 0l-2.92 3.462a1.625 1.625 0 0 0-.234 1.749c.273.588.847.954 1.497.954h6.197c.65 0 1.224-.365 1.497-.954a1.625 1.625 0 0 0-.234-1.748l-2.92-3.463Zm1.795 4.58c-.026.056-.072.084-.137.084H8.9a.142.142 0 0 1-.137-.085.129.129 0 0 1 .02-.15l2.921-3.461A.384.384 0 0 1 12 9.584c.067 0 .195.018.295.136l2.92 3.463a.128.128 0 0 1 .02.148Z"/></svg>
